X: 22323
T: La Soirée Chez Alcide
R: reel
M: 4/4
K: Gmajor
DEF|:G2FG BAGB|DGBd g3B|cBAc BAGB|AGFA dDEF|
G2FG BAGB|DGBd g3B|cBAc BAGB|1 AGFA GDEF:|2 AGFA GABd||
|:g2dg BgdB|c2Gc EcGc|g2dg Bgde|fgaf dfaf|
g2dg BgdB|c2Gc EcGc|g2dg Bgde|1 fgaf gdef:|2 fgaf gDEF||

